!!!OTL: Als ich hungerig und dursterig sein (Band 1), S. 244
!!!id: P0863
**kern
*clefG2
*k[f#]
*G:
{16g
=1
16g
4d
8g
=2
8.g
16g
16g
16g
=3
8.g
16a
8b
=4
4a}
8r
=5
{4b
8cc
=6
8b
8a
8g
=7
8a
8g
8f#
=8
4g}
8r
=9
{4b
8g
=10
4b
8dd
=11
8dd
8cc
8b
=12
4a
8g}
=13
{4a
8g
=14
4a
8a
=15
8b
8a
8b
=16
4d
8d}
=17
{8d
8g
8g
=18
4g
8g
=19
8g
8a
8b
=20
4a}
8r
=21
{4b
8cc
=22
8b
8a
8g
=23
4a
8f#
=24
4g}
8r
=25
{4b
8g
=26
4b
8dd
=27
8dd
8cc
8b
=28
4a
8g}
=29
{4a
8g
=30
4a
8a
=31
8b
8a
8b
=32
4d
8d}
=33
{8d
8g
8g
=34
4g
8g
=35
8g
8a
8b
=36
4a}
8r
=37
{4b
8cc
=38
8b
8a
8g
=39
4a
8f#
=40
4g}
8r
==
*-
!!!minrhy: 16
!!!meters: 3/8 ]  ZZ[10
!!!cut: Als ich hungerig und dursterig sein (Band 1), S. 244
!!!reg: Lothringen
!!!trd: PINCK, Louis: Verklingende Weisen, Bd 1, Metz 1928
!!!rhy1:   X__X_  X_.XXX  X_.XX_  X__0_
!!!rhy2: X__X_  X_X_X_  X_X_X_  X__0_
!!!key: P0863  16  G 3/8 ]  ZZ[10
!!!mod: SECHSTONSKALA DUR ?]  AMBITUS[8
!!!kad: 211-5211-521
!!!akz: -5112_3321_3352_223-5_-5112_3321_3352_223-5_-5112_3321_
!!!fot: 'a__b__c__d__av_bv_c__d__av_bv_
!!!for: 'a__b__c__c__d__e__c__c__d__e__
!!!fok: '/__\__Sd_\__/__\__Sd_\__/__\__
!! PHRAS[VOLLTAKTIG]
!!!fkt: Spott-, Zechlied
!! LOTH VKL
!! PR[31] 2K[5] 2G[12] 3K[10] 3G[5] 4A[5] 4Ü[0] 5A[0] 6K[0] 6G[0]
!! 7K[0] 7G[0] 8A[0] MEHR[0] SI[36] ABS[42] SR[17] SP[19]
!! ST[14] 2k[7] 2g[14] 3k[5] 3g[2] 4d[2] 4ü[0] 5d[2] 6k[0] 6g[0]
!! 7k[0] 7g[0] 8d[0] mehr[0] si[33] dm[+3] sr[21] sp[12]
!! 1F[13] 2F[58] 3F[20] 4F[0] LF[0] 2P[4] 3P[4] 4P[0] TRI[0] DF[5] AB[45]
!! TF[0] U3K[0] U3[0] U4[0] U4Ü[0] U5[7] U6K[0] U6[5] U7K[0] U7[9]
!! N1[28] N2K[0] N2[19] N3K[0] N3[16] N4[9] N4Ü[0] N5[7] N6K[0] N6[0]
!!!n7k: 0] N7[0] O1[0] O2K[0] O2[0] O3K[0] O3[0] HÖ[0
